X:318
T:Untitled RH.318
R:jig
S:Rev.R.Harrison’s MS,c1815,Cumbria
N:The last bar was|efe edc|. PJH.
N:In effect, this tune modulates G/D/Em.
O:England
A:Temple Sowerby,Cumbria
Z:vmp.Simon Wilson. Review PJH, 2008.
M:6/8
L:1/8
Q:3/8=120
K:G
d/c/|BGG BGG|gfe dBG|BGG BGG|AAA A2d/c/|!
BGG BGG|gfe dBG|ecA GFA|GGG G2:|!
|:d|gbb bd’g|faa ac’f|efe efg|faf d2f|!
gbb bd’g|faa ac’f|bge d^ce|edd d2:|!
|:d|efe gbg|efe e2f|gab bag|gff f2B|!
egg faa|gbb ac’c’|bag fed|efe ec:|

